app/assets/v2/images/vision/gitcoin.svg

<?xml version="1.0" encoding="UTF-8"?>
<svg width="15px" height="19px" viewBox="0 0 15 19" version="1.1" xmlns="http://www.w3.org/2000/svg" xmlns:xlink="http://www.w3.org/1999/xlink">
    <!-- Generator: Sketch 50.2 (55047) - http://www.bohemiancoding.com/sketch -->
    <title>gitcoin</title>
    <desc>Created with Sketch.</desc>
    <defs>
        <polygon id="path-1" points="0 0 15 0 15 18.4615385 0 18.4615385"></polygon>
    </defs>
    <g id="Module-02-Templates" stroke="none" stroke-width="1" fill="none" fill-rule="evenodd">
        <g id="Gitcoin-Vision" transform="translate(-798.000000, -3320.000000)">
            <g id="Long-Term-Vision" transform="translate(-140.000000, 2841.000000)">
                <g id="2018" transform="translate(810.000000, 292.000000)">
                    <g id="gitcoin" transform="translate(128.000000, 187.000000)">
                        <mask id="mask-2" fill="white">
                            <use xlink:href="#path-1"></use>
                        </mask>
                        <g id="Clip-2"></g>
                        <path d="M8.4641553,11.0568435 C7.92157718,11.0568435 7.48021136,10.6200441 7.48021136,10.0830556 C7.48021136,9.54606713 7.92157718,9.10916328 8.4641553,9.10916328 C9.00662788,9.10916328 9.4479937,9.54606713 9.4479937,10.0830556 C9.4479937,10.6200441 9.00662788,11.0568435 8.4641553,11.0568435 Z M13.3974896,15.6035897 L13.3974896,16.9640301 L8.4641553,16.9640301 C4.63117494,16.9639257 1.51280193,13.8771822 1.51280193,10.0830556 C1.51280193,7.54531493 2.90887727,5.32569291 4.97966607,4.13282629 L4.97966607,6.38859579 C4.97966607,6.69177488 5.22800031,6.93770307 5.53427568,6.93770307 C5.8406566,6.93770307 6.08909637,6.69177488 6.08909637,6.38859579 L6.08909637,3.61610548 C6.83051074,3.34834254 7.6302884,3.20208109 8.4641553,3.20208109 C10.0582226,3.20208109 11.5703913,3.72966705 12.7970759,4.70136546 L9.39733478,7.79134759 C9.10879003,7.67580104 8.79396596,7.61165495 8.4641553,7.61165495 C7.08749921,7.61165495 5.96740943,8.72031676 5.96740943,10.0830556 C5.96740943,11.4457945 7.08749921,12.5543518 8.4641553,12.5543518 C8.70911227,12.5543518 8.94573163,12.5186222 9.16968627,12.4532225 L13.3974896,15.6035897 Z M11.9842113,7.46382641 C12.5571848,8.21414766 12.8667319,9.12316259 12.8667319,10.0830556 C12.8667319,11.0311432 12.5609842,11.9367106 11.9965594,12.6851513 L10.4723592,11.5494311 C10.7790568,11.1388544 10.9607956,10.6316405 10.9607956,10.0830556 C10.9607956,9.59558708 10.8169454,9.14102738 10.5697721,8.75761343 L11.9842113,7.46382641 Z M13.0993407,6.44323489 L15,4.70397727 L14.4491898,4.15863099 C12.9098975,2.6347956 10.8816411,1.77258434 8.7148114,1.71052769 L8.7148114,0.549107283 C8.7148114,0.245928186 8.46637163,0 8.16009625,0 C7.85382088,0 7.6053811,0.245928186 7.6053811,0.549107283 L7.6053811,1.74740647 C7.08433303,1.7996427 6.57806047,1.90087652 6.08909637,2.04264566 L6.08909637,0.549107283 C6.08909637,0.245928186 5.8406566,0 5.53427568,0 C5.22800031,0 4.97966607,0.245928186 4.97966607,0.549107283 L4.97966607,2.45050617 C2.04630366,3.76800844 0,6.69250619 0,10.0830556 C0,14.6793218 3.75857508,18.4215255 8.39281066,18.4597624 L14.9102915,18.4615385 L14.9102915,14.8562981 L13.2054078,13.5859129 C13.9668747,12.5791118 14.3795338,11.3598136 14.3795338,10.0830556 C14.3795338,8.74162914 13.9296193,7.47396024 13.0993407,6.44323489 Z" id="Fill-1" fill="#15EF91" mask="url(#mask-2)"></path>
                    </g>
                </g>
            </g>
        </g>
    </g>
</svg>

<svg width="15" height="19" xmlns="http://www.w3.org/2000/svg" xmlns:xlink="http://www.w3.org/1999/xlink"><defs><path id="a" d="M0 0h15v18.462H0z"/></defs><g fill="none" fill-rule="evenodd"><mask id="b" fill="#fff"><use xlink:href="#a"/></mask><path d="M8.464 11.057a.98.98 0 0 1-.984-.974.98.98 0 0 1 .984-.974.98.98 0 0 1 .984.974.98.98 0 0 1-.984.974zm4.933 4.547v1.36H8.464c-3.833 0-6.951-3.087-6.951-6.88 0-2.539 1.396-4.758 3.467-5.951v2.256c0 .303.248.549.554.549a.552.552 0 0 0 .555-.55V3.617a6.979 6.979 0 0 1 2.375-.414c1.594 0 3.106.528 4.333 1.5l-3.4 3.09a2.505 2.505 0 0 0-.933-.18c-1.377 0-2.497 1.108-2.497 2.471s1.12 2.471 2.497 2.471c.245 0 .482-.035.706-.1l4.227 3.15zm-1.413-8.14c.573.75.883 1.66.883 2.62 0 .947-.306 1.853-.87 2.601l-1.525-1.136a2.442 2.442 0 0 0 .098-2.791l1.414-1.294zm1.115-1.02L15 4.703l-.55-.545A8.444 8.444 0 0 0 8.714 1.71V.549A.552.552 0 0 0 8.16 0a.552.552 0 0 0-.555.55v1.197a8.478 8.478 0 0 0-1.516.296V.549A.552.552 0 0 0 5.534 0a.552.552 0 0 0-.554.55v1.9C2.046 3.769 0 6.694 0 10.084c0 4.596 3.759 8.339 8.393 8.377l6.517.002v-3.606l-1.705-1.27a5.784 5.784 0 0 0 1.175-3.503c0-1.341-.45-2.609-1.28-3.64z" fill="#15EF91" mask="url(#b)"/></g></svg>
